X:1
T:Mrs. Macdouall Grant’s Strathspey
T:Mrs. Macdouall Grant’s Strathspey
T:Nathaniel Gow
C:Nathaniel Gow
L:1/8
M:2/4
K:F
V:1 treble 
V:1
 B | (A/B/c) (.c.c) | Bd Td2 | (A/B/c) AF | E<GG>B | A/B/c (.c.c) | B/c/d/e/ fd | cABG |{E} F2 F :| %9
 f | Tg2{fg} ae | fdf>a |{a} (Tgf/g/) af | egga | g2{Tfg} ae | fc{g} fe/d/ | cABG |{E} F2 Ff | %18
 Tg2{fg} ae | fcfa |{a} g2{fg} af | eg g f/g/ | afdf | ecfd |{d} cB/A/{c} BA/G/ |{E} F2 F || %26

